X:610
T:Fair Maid of Kinsale., The
R:waltz
T:an cailin ban ua ceann-saile.
Z:Tempo: Slow
M:3/4
Q:80
K:G
DE/F/ GG|B AGFG|A2 Bcdc|BABcdc|A2 AG/F/ GG|
B2 AGFG|A2 defd|dc A/G/F/A/ GG|G2||
Bcdd|f2 de/f/ gg|f2 dcBB|BcBA Bcdc|A2 AG/F/ GG|
B2 AGFG|A2 defd|dc A/G/F/A/ GG|G2||
